packages/admin/admin-icons/icons/rte-link.svg

<svg width="16" height="16" fill="none" viewBox="0 0 16 16">
  <path fill="#242424" fill-rule="evenodd" d="M1.52 8.001A2.482 2.482 0 0 1 4 5.521h3.2v-1.52H4c-2.208 0-4 1.792-4 4s1.792 4 4 4h3.2v-1.52H4a2.482 2.482 0 0 1-2.48-2.48Zm3.28.8h6.4v-1.6H4.8v1.6Zm7.2-4.8H8.8v1.52H12a2.482 2.482 0 0 1 2.48 2.48 2.482 2.482 0 0 1-2.48 2.48H8.8v1.52H12c2.208 0 4-1.792 4-4s-1.792-4-4-4Z" clip-rule="evenodd"/>
</svg>

<svg width="16" height="16" viewBox="0 0 16 16" fill="none" xmlns="http://www.w3.org/2000/svg">
<path fill-rule="evenodd" clip-rule="evenodd" d="M1.52 8C1.52 6.632 2.632 5.52 4 5.52H7.2V4H4C1.792 4 0 5.792 0 8C0 10.208 1.792 12 4 12H7.2V10.48H4C2.632 10.48 1.52 9.368 1.52 8ZM4.8 8.8H11.2V7.2H4.8V8.8ZM12 4H8.8V5.52H12C13.368 5.52 14.48 6.632 14.48 8C14.48 9.368 13.368 10.48 12 10.48H8.8V12H12C14.208 12 16 10.208 16 8C16 5.792 14.208 4 12 4Z" fill="#242424"/>
</svg>
